images/hero-3.svg

<svg width="338px" height="325px" viewBox="0 0 338 325" version="1.1" xmlns="http://www.w3.org/2000/svg" xmlns:xlink="http://www.w3.org/1999/xlink">
    <!-- Generator: Sketch 39.1 (31720) - http://www.bohemiancoding.com/sketch -->
    <title>утко</title>
    <desc>Created with Sketch.</desc>
    <defs></defs>
    <g id="Page-1" stroke="none" stroke-width="1" fill="none" fill-rule="evenodd">
        <g id="утко" transform="translate(76.000000, 254.000000) scale(-1, 1) translate(-76.000000, -254.000000) translate(-186.000000, -12.000000)" stroke="#979797">
            <path d="M204.569192,103.044796 C229.422006,103.044796 249.569192,85.1361864 249.569192,63.0447964 C249.569192,44.8803297 230.502622,8.98347704 221.188898,8.98347704 C211.875173,8.98347704 204.197358,20.8195957 199.779569,20.8195957 C194.60435,20.8195957 192.387239,16.9988436 185.644756,18.224996 C178.902273,19.4511484 159.569192,45.5536009 159.569192,63.0447964 C159.569192,85.1361864 179.716379,103.044796 204.569192,103.044796 Z" id="Oval-8" fill="#545454" transform="translate(204.569192, 56.014137) rotate(9.000000) translate(-204.569192, -56.014137) "></path>
            <path d="M202,115 C237.346224,115 265.164551,115.560579 265.164551,97.0590401 C265.164551,78.557501 237.346224,48 202,48 C166.653776,48 137.486438,59.6744157 137.486438,78.1759548 C137.486438,96.6774939 166.653776,115 202,115 Z" id="Oval-7" fill="#2A2A2A"></path>
            <path d="M160.211943,54.1105089 C161.739336,53.7202625 184.084627,47.3185081 197.518341,47.3185081 C209.767752,47.3185081 223.570331,50.7979113 232.248324,55.6034117 C234.156259,56.6599445 247.910029,65.9578972 247.910029,65.9578972 C247.910029,65.9578972 247.768185,63.7691362 247.910031,61.4777298 C248.112461,58.2076261 246.99854,55.8435381 246.99854,55.6034117 C246.99854,53.6704151 220.986756,38.4640079 195.912767,40.3356816 C170.838777,42.2073553 161.134035,47.2843585 161.134035,48.6643548 C161.134035,49.3962158 158.68455,54.5007553 160.211943,54.1105089 Z" id="Oval-9" fill="#FFFFFF"></path>
            <ellipse id="Oval-6" fill="#979797" transform="translate(76.386004, 264.709958) rotate(20.000000) translate(-76.386004, -264.709958) " cx="76.3860045" cy="264.709958" rx="27" ry="46.5"></ellipse>
            <path d="M213.13189,483.237911 C247.10917,483.237911 318.855045,477.817728 363.595059,463.421062 C441.022514,438.506067 508.701096,342.600157 518.682687,332.557586 C528.664278,322.515016 489.785807,334.802383 479.750558,332.557586 C445.40822,324.87551 418.407661,288.923851 380.891335,262.813186 C345.787769,238.381757 313.645544,222.507397 299.564523,217.434555 C270.434655,206.940201 265.753106,204.442673 257.940713,185.119797 C228.387534,112.024088 264.0021,73.2468506 198.431649,65.7511502 C143.192463,59.4364705 142.755882,129.27743 111.749233,185.119795 C80.7425852,240.96216 42.4424828,304.399168 42.4424828,352.052853 C42.4424828,446.493545 120.353234,483.237911 213.13189,483.237911 Z" id="туловко" fill="#FEFEFE" transform="translate(281.374726, 274.294844) rotate(-1.000000) translate(-281.374726, -274.294844) "></path>
            <circle id="Oval-2" fill="#000000" cx="217.5" cy="124.5" r="7.5"></circle>
            <path d="M90.8661808,162.334958 C140.777052,166.925593 139.83787,163.80867 149.779999,159.527475 C159.722128,155.24628 169.124313,145.571305 169.124313,139.501917 C169.124313,134.288359 163.901534,124.100211 152.932587,120.256572 C137.370298,114.803376 117.108984,113.236921 90.8661808,116.668877 C47.8576447,122.293407 2.26951823e-15,129.996645 0,139.501917 C1.94008608e-15,149.00719 40.9553098,157.744323 90.8661808,162.334958 Z" id="клювище" fill="#F3FF03"></path>
            <path d="M1.5,139.5 L139.5,139.5" id="Line" stroke-linecap="square"></path>
            <path d="M149.829044,151.146119 C149.969137,151.146119 140.539655,150.294304 140.539655,139.651857 C140.539655,129.00941 149.969138,127.725911 149.829044,127.725911 C149.688951,127.725911 140.539655,130.583001 140.539655,139.651857 C140.539655,148.720713 149.688951,151.146119 149.829044,151.146119 Z" id="Oval" fill="#D8D8D8"></path>
            <path d="M322.515084,361.501274 C423.140698,352.283043 458.4473,256.677958 458.4473,256.677958 C458.4473,256.677958 373.66959,244.116455 322.51508,244.116455 C284.317438,244.116455 245.461762,248.943797 221.686111,256.677958 C197.91046,264.412119 221.88947,370.719505 322.515084,361.501274 Z" id="Oval-4" fill="#979797" transform="translate(335.828662, 303.091904) rotate(30.000000) translate(-335.828662, -303.091904) "></path>
        </g>
    </g>
</svg>

<svg width="338" height="325" viewBox="0 0 338 325" xmlns="http://www.w3.org/2000/svg"><title>утко</title><g transform="matrix(-1 0 0 1 338 -12)" stroke="#979797" fill="none" fill-rule="evenodd"><path d="M197.212 102.466c24.547 3.888 47.247-10.649 50.703-32.468 2.842-17.941-10.374-56.379-19.574-57.836-9.199-1.457-18.633 9.033-22.997 8.342-5.111-.81-6.703-4.93-13.555-4.774-6.851.156-30.03 22.913-32.766 40.189-3.455 21.82 13.642 42.659 38.189 46.547z" fill="#545454"/><path d="M202 115c35.346 0 63.165.56 63.165-17.941C265.165 78.558 237.346 48 202 48c-35.346 0-64.514 11.674-64.514 30.176C137.486 96.677 166.654 115 202 115z" fill="#2A2A2A"/><path d="M160.212 54.11c1.527-.39 23.873-6.791 37.306-6.791 12.25 0 26.052 3.479 34.73 8.284 1.908 1.057 15.662 10.355 15.662 10.355s-.142-2.189 0-4.48c.202-3.27-.911-5.634-.911-5.875 0-1.933-26.012-17.139-51.086-15.267-25.074 1.871-34.779 6.948-34.779 8.328 0 .732-2.45 5.837-.922 5.447z" fill="#FFF"/><ellipse fill="#979797" transform="rotate(20 76.386 264.71)" cx="76.386" cy="264.71" rx="27" ry="46.5"/><path d="M216.789 484.397c33.972-.593 105.612-7.264 150.094-22.44 76.981-26.262 142.976-123.335 152.78-133.55 9.805-10.215-28.853 2.749-38.926.68-34.471-7.082-62.095-42.557-100.061-68.009-35.525-23.815-67.94-39.126-82.107-43.952-29.308-9.985-34.033-12.4-42.181-31.584-30.824-72.568 4.108-111.961-61.583-118.312-55.341-5.35-54.559 64.489-84.586 120.864-30.028 56.375-67.215 120.47-66.383 168.117 1.648 94.426 80.188 129.805 172.953 128.186z" fill="#FEFEFE"/><circle fill="#000" cx="217.5" cy="124.5" r="7.5"/><path d="M90.866 162.335c49.911 4.59 48.972 1.474 58.914-2.808 9.942-4.28 19.344-13.956 19.344-20.025 0-5.214-5.222-15.402-16.191-19.245-15.563-5.454-35.824-7.02-62.067-3.588C47.858 122.293 0 129.997 0 139.502c0 9.505 40.955 18.242 90.866 22.833z" fill="#F3FF03"/><path d="M1.5 139.5h138" stroke-linecap="square"/><path d="M149.829 151.146c.14 0-9.29-.852-9.29-11.494 0-10.643 9.43-11.926 9.29-11.926-.14 0-9.29 2.857-9.29 11.926 0 9.069 9.15 11.494 9.29 11.494z" fill="#D8D8D8"/><path d="M295.094 347.02c91.754 42.329 170.132-22.814 170.132-22.814s-67.138-53.268-111.44-78.845c-33.08-19.099-69.143-34.346-93.6-39.536-24.458-5.19-56.845 98.865 34.908 141.194z" fill="#979797"/></g></svg>
